austria/municipalities/70927.svg

<?xml version="1.0" encoding="UTF-8"?>
<!DOCTYPE svg PUBLIC "-//W3C//DTD SVG 1.1//EN" "http://www.w3.org/Graphics/SVG/1.1/DTD/svg11.dtd">
<svg xmlns="http://www.w3.org/2000/svg" version="1.1" width="166px" height="192px" style="shape-rendering:geometricPrecision; text-rendering:geometricPrecision; image-rendering:optimizeQuality; fill-rule:evenodd; clip-rule:evenodd" xmlns:xlink="http://www.w3.org/1999/xlink">
<g><path style="opacity:1" fill="#090908" d="M -0.5,-0.5 C 54.8333,-0.5 110.167,-0.5 165.5,-0.5C 165.5,39.1667 165.5,78.8333 165.5,118.5C 157.621,158.712 133.621,183.045 93.5,191.5C 86.1667,191.5 78.8333,191.5 71.5,191.5C 30.4674,182.802 6.46741,157.802 -0.5,116.5C -0.5,77.5 -0.5,38.5 -0.5,-0.5 Z"/></g>
<g><path style="opacity:1" fill="#0d190e" d="M 161.5,3.5 C 162.167,21.1635 162.5,38.9968 162.5,57C 162.5,75.1794 161.833,93.0127 160.5,110.5C 124.833,75.5 89.5,40.1667 54.5,4.5C 71.9873,3.16709 89.8206,2.50042 108,2.5C 126.003,2.50005 143.836,2.83339 161.5,3.5 Z"/></g>
<g><path style="opacity:1" fill="#fdfcfc" d="M 54.5,4.5 C 89.5,40.1667 124.833,75.5 160.5,110.5C 160.154,138.688 148.154,160.521 124.5,176C 122.975,177.009 121.308,177.509 119.5,177.5C 90.8333,148.167 61.8333,119.167 32.5,90.5C 23.5,80.8333 14.1667,71.5 4.5,62.5C 3.51282,42.9093 3.17949,23.2426 3.5,3.5C 20.577,3.18156 37.577,3.5149 54.5,4.5 Z"/></g>
<g><path style="opacity:1" fill="#185c2a" d="M 161.5,3.5 C 161.667,38.8349 161.5,74.1682 161,109.5C 125.833,74.3333 90.6667,39.1667 55.5,4C 90.8318,3.50001 126.165,3.33335 161.5,3.5 Z"/></g>
<g><path style="opacity:1" fill="#030303" d="M 43.5,16.5 C 44.8149,17.4756 46.1482,18.4756 47.5,19.5C 48.8139,18.6872 49.9805,17.6872 51,16.5C 58,23.5 65,30.5 72,37.5C 72.2649,39.1626 71.7649,40.6626 70.5,42C 89.941,65.1102 111.608,85.7768 135.5,104C 142.479,109.295 147.479,115.962 150.5,124C 149.551,130.232 146.551,135.232 141.5,139C 138.97,140.422 136.303,140.755 133.5,140C 130.96,137.795 128.793,135.295 127,132.5C 120.835,117.494 112.169,104.161 101,92.5C 87.5889,79.7512 73.5889,67.7512 59,56.5C 58.0853,57.3279 57.4186,58.3279 57,59.5C 55.9139,67.7199 56.7473,75.7199 59.5,83.5C 44.2233,84.9515 31.7233,79.6182 22,67.5C 13.6387,57.587 10.472,46.2537 12.5,33.5C 20.6802,36.6479 28.3468,35.6479 35.5,30.5C 35.0233,29.5224 34.3567,28.6891 33.5,28C 36.6693,23.9992 40.0027,20.1659 43.5,16.5 Z"/></g>
<g><path style="opacity:1" fill="#185b2a" d="M 4.5,62.5 C 14.1667,71.5 23.5,80.8333 32.5,90.5C 60.4146,119.916 88.9146,148.916 118,177.5C 118.464,178.094 118.631,178.761 118.5,179.5C 81.0342,195.27 48.5342,188.27 21,158.5C 5.92945,138.186 0.096117,115.353 3.5,90C 3.5002,80.6605 3.83353,71.4938 4.5,62.5 Z"/></g>
<g><path style="opacity:1" fill="#0e190e" d="M 32.5,90.5 C 61.8333,119.167 90.8333,148.167 119.5,177.5C 119.672,178.492 119.338,179.158 118.5,179.5C 118.631,178.761 118.464,178.094 118,177.5C 88.9146,148.916 60.4146,119.916 32.5,90.5 Z"/></g>
<g><path style="opacity:1" fill="#fdfdfd" d="M -0.5,116.5 C 6.46741,157.802 30.4674,182.802 71.5,191.5C 47.5,191.5 23.5,191.5 -0.5,191.5C -0.5,166.5 -0.5,141.5 -0.5,116.5 Z"/></g>
<g><path style="opacity:1" fill="#fdfdfd" d="M 165.5,118.5 C 165.5,142.833 165.5,167.167 165.5,191.5C 141.5,191.5 117.5,191.5 93.5,191.5C 133.621,183.045 157.621,158.712 165.5,118.5 Z"/></g>
</svg>

<svg xmlns="http://www.w3.org/2000/svg" width="166" height="192" style="shape-rendering:geometricPrecision;text-rendering:geometricPrecision;image-rendering:optimizeQuality;fill-rule:evenodd;clip-rule:evenodd"><path style="opacity:1" fill="#090908" d="M-.5-.5h166v119c-7.879 40.212-31.879 64.545-72 73h-22c-41.033-8.698-65.033-33.698-72-75V-.5z"/><path style="opacity:1" fill="#0d190e" d="M161.5 3.5c.667 17.663 1 35.497 1 53.5 0 18.18-.667 36.013-2 53.5-35.667-35-71-70.333-106-106 17.487-1.333 35.32-2 53.5-2 18.003 0 35.836.333 53.5 1z"/><path style="opacity:1" fill="#fdfcfc" d="M54.5 4.5c35 35.667 70.333 71 106 106-.346 28.188-12.346 50.021-36 65.5-1.525 1.009-3.192 1.509-5 1.5a5355.213 5355.213 0 0 0-87-87c-9-9.667-18.333-19-28-28a886.197 886.197 0 0 1-1-59 664.2 664.2 0 0 1 51 1z"/><path style="opacity:1" fill="#185c2a" d="M161.5 3.5c.167 35.335 0 70.668-.5 106L55.5 4c35.332-.5 70.665-.667 106-.5z"/><path style="opacity:1" fill="#030303" d="M43.5 16.5c1.315.976 2.648 1.976 4 3a14.974 14.974 0 0 0 3.5-3l21 21c.265 1.663-.235 3.163-1.5 4.5 19.441 23.11 41.108 43.777 65 62 6.979 5.295 11.979 11.962 15 20-.949 6.232-3.949 11.232-9 15-2.53 1.422-5.197 1.755-8 1a34.706 34.706 0 0 1-6.5-7.5c-6.165-15.006-14.831-28.339-26-40a536.193 536.193 0 0 0-42-36 7.291 7.291 0 0 0-2 3c-1.086 8.22-.253 16.22 2.5 24-15.277 1.451-27.777-3.882-37.5-16-8.361-9.913-11.528-21.246-9.5-34 8.18 3.148 15.847 2.148 23-3a7.253 7.253 0 0 0-2-2.5c3.17-4 6.503-7.834 10-11.5z"/><path style="opacity:1" fill="#185b2a" d="M4.5 62.5c9.667 9 19 18.333 28 28a3497.417 3497.417 0 0 0 85.5 87c.464.594.631 1.261.5 2-37.466 15.77-69.966 8.77-97.5-21C5.93 138.186.096 115.353 3.5 90c0-9.34.334-18.506 1-27.5z"/><path style="opacity:1" fill="#0e190e" d="M32.5 90.5a5355.213 5355.213 0 0 1 87 87c.172.992-.162 1.658-1 2a2.428 2.428 0 0 0-.5-2 3497.417 3497.417 0 0 1-85.5-87z"/><path style="opacity:1" fill="#fdfdfd" d="M-.5 116.5c6.967 41.302 30.967 66.302 72 75h-72v-75zM165.5 118.5v73h-72c40.121-8.455 64.121-32.788 72-73z"/></svg>
